X: 127
%
U:~=!turn!
T: Mrs. Fraser's Reel
T: Cullen
C:Marshall
O:Scotland
B:Keith Norman MacDonald : "The Skye collection of the best reels & strathspeys extant" : 1887
Z:Ralph Palmer
R:Reel
M:C|
L:1/8
K:Bb
F | B2 (dB) fBdB | AFcF eFcF | B2 (dB) fBdB | AFeA B2 B :| d | (fe)de (fb)ab | gfed cBAG |
(fe)de (fb)ab | agf=e Tf2 (fd) | (ed)gf (ec)fe | (dB)ed (cB)AF | ~B2 (dB) fBdB | AFeA B2 B |]


